advanced/wallets/react-wallet-v2/public/icons/sessions-icon.svg

<svg fill="none" height="512" viewBox="0 0 512 512" width="512" xmlns="http://www.w3.org/2000/svg" xmlns:xlink="http://www.w3.org/1999/xlink"><linearGradient id="a"><stop offset="0" stop-color="#a562d5"/><stop offset="1" stop-color="#306feb"/></linearGradient><linearGradient id="b" gradientUnits="userSpaceOnUse" x1="320" x2="396.642" xlink:href="#a" y1="120.008" y2="157.601"/><linearGradient id="c" gradientUnits="userSpaceOnUse" x1="64.0001" x2="284.191" xlink:href="#a" y1="168.018" y2="445.745"/><linearGradient id="d" gradientUnits="userSpaceOnUse" x1="160" x2="219.048" xlink:href="#a" y1="248.008" y2="421.788"/><g stroke-linecap="round" stroke-linejoin="round" stroke-width="32"><path d="m320 120 48 48-48 48" stroke="url(#b)"/><path d="m352 168h-208c-21.198.063-41.509 8.512-56.4986 23.501-14.9892 14.99-23.4381 35.301-23.5014 56.499v16m128 128-48-48 48-48" stroke="url(#c)"/><path d="m160 344h208c21.198-.063 41.509-8.512 56.499-23.501 14.989-14.99 23.438-35.301 23.501-56.499v-16" stroke="url(#d)"/></g></svg>

<svg width="512" height="512" viewBox="0 0 512 512" fill="none" xmlns="http://www.w3.org/2000/svg">
<path d="M320 120L368 168L320 216" stroke="url(#paint0_linear_101_17)" stroke-width="32" stroke-linecap="round" stroke-linejoin="round"/>
<path d="M352 168H144C122.802 168.063 102.491 176.512 87.5014 191.501C72.5122 206.491 64.0633 226.802 64 248V264M192 392L144 344L192 296" stroke="url(#paint1_linear_101_17)" stroke-width="32" stroke-linecap="round" stroke-linejoin="round"/>
<path d="M160 344H368C389.198 343.937 409.509 335.488 424.499 320.499C439.488 305.509 447.937 285.198 448 264V248" stroke="url(#paint2_linear_101_17)" stroke-width="32" stroke-linecap="round" stroke-linejoin="round"/>
<defs>
<linearGradient id="paint0_linear_101_17" x1="320" y1="120.008" x2="396.642" y2="157.601" gradientUnits="userSpaceOnUse">
<stop stop-color="#A562D5"/>
<stop offset="1" stop-color="#306FEB"/>
</linearGradient>
<linearGradient id="paint1_linear_101_17" x1="64.0001" y1="168.018" x2="284.191" y2="445.745" gradientUnits="userSpaceOnUse">
<stop stop-color="#A562D5"/>
<stop offset="1" stop-color="#306FEB"/>
</linearGradient>
<linearGradient id="paint2_linear_101_17" x1="160" y1="248.008" x2="219.048" y2="421.788" gradientUnits="userSpaceOnUse">
<stop stop-color="#A562D5"/>
<stop offset="1" stop-color="#306FEB"/>
</linearGradient>
</defs>
</svg>
